X: 14068
T: O.N.E. JIG
C: Bob McQuillen 15 July'08
B: Bob's Note Book 14 #68
%R: jig
%D:2008
Z: 2020 John Chambers <jc:trillian.mit.edu>
M: 6/8
L: 1/8
K: A
B \
| cec BAF | EAc e2c | def eaf | ecA Bcd |
| cec BAF | EAc e2e | aec BAB | cAA A2 :|
|: c \
| ece a2e | cec BAc | ece a2e | fga gfe |
| afa ecA |def e2d | cec ABc | BAA A2 :|
%%begintext align
%% Every once in a while, I think our band,
%% Old New England, might like something
%% else to play. Hene, this. I hope its worth
%% while!
%%endtext

%%sep 1 1 500

%%sep 1 1 500

